X: 28
T:Just as the Tide was Flowing
M:4/4
L:1/4
R:polka
K:G
D |GGED|GG A G/2A/2|B2 A2|B/2A/2G/2E/2 ED |
  |GGED|GG A G/2A/ |Bd c/2B/2 A/2G/2|EFG :|
|Bd dd|de d2 |dB B/2A/2 |G/2A/2 BG E|
|DGG E|D GG  A| G/2A/2 Bd c/2B/2|A/2G/2 EFG:|
